X:1
T:The Son of a Gambolier
M:6/8
L:1/8
K:F
 C/2C/2| F2 F F2 G| A2 A A2 F| G2 F F2 G| F3- F z G| A2 A A2 B| c2 c c2 c|\
 d2 G G2 A| G3- G z c| d2 d B2 c| d f2- fe d| c2 d c2 A| c3- cA-G|\
F-F F F2 G| A2 A A2 F| GGG F2 E| F3- F z||
